X:370
T: Callaghan's
S: "Music of Ireland - The Big Session" (DJ Taylor)
Z: B.Black
L: 1/8
M: 12/8
R: slide
K: D
A2 A A2 A ABA GFE|DFA B2 A B2 A F3|\
ded a2 a f2 d B2 d|A2 A BAB d6 :|
d3 a2 a f2 d B2 A|BdA BdA B2 A F3|\
ded a2 a f2 d B2 d|A2 A BAB d6 :|
